X: 41159
T: Tripping On The Mountain
R: polka
M: 2/4
K: Dmajor
|:f/g/|af ge|fd df/g/|af g>a|be ef/g/|
af ge|fd f>e|dB A/B/d/e/|fd d:|
|:f/e/|dA FA|d>c d/e/f/e/|dA FA|BE Ef/e/|
dA FA|dg f>e|dB A/B/d/e/|fd d:|

